boxicons/svg/regular/bx-food-menu.svg

<svg xmlns="http://www.w3.org/2000/svg" width="24" height="24" viewBox="0 0 24 24"><path d="M3 2H5V22H3zM10 6H17V8H10zM10 10H17V12H10z"/><path d="M19,2h-5h-0.063H6v20h7.938H14h5c1.103,0,2-0.897,2-2V4C21,2.897,20.103,2,19,2z M19,20h-5h-0.063H8V4h5.938H14h5V20z"/></svg>

<svg xmlns="http://www.w3.org/2000/svg" width="24" height="24" viewBox="0 0 24 24"><path d="M3 2h2v20H3zm7 4h7v2h-7zm0 4h7v2h-7z"/><path d="M19 2H6v20h13c1.103 0 2-.897 2-2V4c0-1.103-.897-2-2-2zm0 18H8V4h11v16z"/></svg>
